assets/Hamburger/Flat/hamburger_flat.svg

<svg width="32" height="32" viewBox="0 0 32 32" fill="none" xmlns="http://www.w3.org/2000/svg">
<path d="M24.8489 29.6987H7.15096C5.72791 29.6987 4.57544 28.5462 4.57544 27.1231V25.1389L16 24L27.4444 25.1389V27.1131C27.4344 28.5462 26.2719 29.6987 24.8489 29.6987Z" fill="#E19747"/>
<path d="M19.2669 7H12.7429C8.14302 7 4.42505 10.728 4.42505 15.3178V16.6407H27.5947V15.3178C27.5847 10.728 23.8567 7 19.2669 7Z" fill="#F3AD61"/>
<path d="M19.2069 9.44524C19.2069 9.87141 18.8614 10.2169 18.4353 10.2169C18.0091 10.2169 17.6636 9.87141 17.6636 9.44524C17.6636 9.01907 18.0091 8.67358 18.4353 8.67358C18.8614 8.67358 19.2069 9.01907 19.2069 9.44524Z" fill="#FFF3D7"/>
<path d="M13.5648 10.2169C13.991 10.2169 14.3365 9.87142 14.3365 9.44525C14.3365 9.01908 13.991 8.6736 13.5648 8.6736C13.1387 8.6736 12.7932 9.01908 12.7932 9.44525C12.7932 9.87142 13.1387 10.2169 13.5648 10.2169Z" fill="#FFF3D7"/>
<path d="M21.8927 11.6098C21.8927 12.036 21.5472 12.3815 21.121 12.3815C20.6949 12.3815 20.3494 12.036 20.3494 11.6098C20.3494 11.1837 20.6949 10.8382 21.121 10.8382C21.5472 10.8382 21.8927 11.1837 21.8927 11.6098Z" fill="#FFF3D7"/>
<path d="M10.8791 12.3815C11.3052 12.3815 11.6507 12.036 11.6507 11.6099C11.6507 11.1837 11.3052 10.8382 10.8791 10.8382C10.4529 10.8382 10.1074 11.1837 10.1074 11.6099C10.1074 12.036 10.4529 12.3815 10.8791 12.3815Z" fill="#FFF3D7"/>
<path d="M16 13.2634C16.4262 13.2634 16.7717 12.9179 16.7717 12.4917C16.7717 12.0656 16.4262 11.7201 16 11.7201C15.5739 11.7201 15.2284 12.0656 15.2284 12.4917C15.2284 12.9179 15.5739 13.2634 16 13.2634Z" fill="#FFF3D7"/>
<path d="M27.4344 16.4102H4.56543V19.617L15.9808 21.5582L27.4344 19.617V16.4102Z" fill="#F8312F"/>
<path d="M5.83885 15.1752C6.71066 14.7105 7.74593 14.1646 9.66635 14.1646C11.5873 14.1646 12.6204 14.7108 13.4909 15.1757L13.5095 15.1856C14.2144 15.562 14.7689 15.8582 16.0099 15.8582C17.251 15.8582 17.8055 15.562 18.5104 15.1856L18.529 15.1757C19.3995 14.7108 20.4326 14.1646 22.3535 14.1646C24.2745 14.1646 25.3076 14.7108 26.1776 15.1761L26.1974 15.1867C26.9013 15.5632 27.4528 15.8582 28.6871 15.8582C29.4569 15.8582 30.0809 16.4822 30.0809 17.252C30.0809 18.0218 29.4569 18.6458 28.6871 18.6458C26.7662 18.6458 25.733 18.0995 24.863 17.6342L24.8432 17.6236C24.1394 17.2472 23.5878 16.9522 22.3535 16.9522C21.12 16.9522 20.5683 17.2468 19.8631 17.6234L19.842 17.6347C18.9699 18.1003 17.9349 18.6458 16.0099 18.6458C14.085 18.6458 13.05 18.1003 12.1779 17.6347L12.1567 17.6234C11.4516 17.2468 10.8999 16.9522 9.66635 16.9522C8.4311 16.9522 7.87678 17.2477 7.16941 17.6249L7.15026 17.6351C6.27844 18.0999 5.24317 18.6458 3.32276 18.6458C2.55298 18.6458 1.92896 18.0218 1.92896 17.252C1.92896 16.4822 2.55298 15.8582 3.32276 15.8582C4.558 15.8582 5.11233 15.5626 5.81969 15.1854L5.83885 15.1752Z" fill="#44911B"/>
<path d="M27.675 25.1389H4.32498C3.04223 25.1389 2 24.0966 2 22.8139C2 21.5311 3.04223 20.4889 4.32498 20.4889H27.675C28.9578 20.4889 30 21.5311 30 22.8139C30 24.0966 28.9578 25.1389 27.675 25.1389Z" fill="#6D4534"/>
<path d="M27.4344 19.617H15.9999H4.56543V20.4889L11.851 22.1224C14.5769 22.7337 17.413 22.7337 20.1388 22.1224L27.4244 20.4889V19.617H27.4344Z" fill="#FCD53F"/>
</svg>

<svg xmlns="http://www.w3.org/2000/svg" width="32" height="32" fill="none"><path fill="#E19747" d="M24.849 29.699H7.15a2.575 2.575 0 0 1-2.576-2.576V25.14L16 24l11.444 1.139v1.974A2.6 2.6 0 0 1 24.85 29.7Z"/><path fill="#F3AD61" d="M19.267 7h-6.524a8.317 8.317 0 0 0-8.318 8.318v1.323h23.17v-1.323C27.585 10.728 23.857 7 19.267 7Z"/><path fill="#FFF3D7" d="M19.207 9.445a.772.772 0 1 1-1.543 0 .772.772 0 0 1 1.543 0ZM13.565 10.217a.772.772 0 1 0 0-1.543.772.772 0 0 0 0 1.543ZM21.893 11.61a.772.772 0 1 1-1.544 0 .772.772 0 0 1 1.544 0ZM10.88 12.382a.772.772 0 1 0-.001-1.544.772.772 0 0 0 0 1.544ZM16 13.263a.772.772 0 1 0 0-1.543.772.772 0 0 0 0 1.543Z"/><path fill="#F8312F" d="M27.434 16.41H4.565v3.207l11.416 1.941 11.453-1.941V16.41Z"/><path fill="#44911B" d="M5.839 15.175c.872-.465 1.907-1.01 3.827-1.01 1.921 0 2.954.546 3.825 1.01l.018.01c.705.377 1.26.673 2.5.673 1.242 0 1.796-.296 2.501-.672l.019-.01c.87-.465 1.904-1.011 3.825-1.011 1.92 0 2.954.546 3.824 1.011l.02.01c.703.377 1.255.672 2.49.672a1.394 1.394 0 1 1 0 2.788c-1.922 0-2.955-.547-3.825-1.012l-.02-.01c-.704-.377-1.255-.672-2.49-.672-1.233 0-1.785.295-2.49.671l-.021.012c-.872.465-1.907 1.01-3.832 1.01-1.925 0-2.96-.545-3.832-1.01l-.021-.012c-.705-.376-1.257-.67-2.49-.67-1.236 0-1.79.295-2.498.672l-.019.01c-.872.465-1.907 1.01-3.827 1.01a1.394 1.394 0 1 1 0-2.787c1.235 0 1.79-.295 2.497-.673l.019-.01Z"/><path fill="#6D4534" d="M27.675 25.139H4.325A2.327 2.327 0 0 1 2 22.814a2.327 2.327 0 0 1 2.325-2.325h23.35A2.327 2.327 0 0 1 30 22.814a2.327 2.327 0 0 1-2.325 2.325Z"/><path fill="#FCD53F" d="M27.434 19.617H4.565v.872l7.286 1.633c2.726.612 5.562.612 8.288 0l7.285-1.633v-.872h.01Z"/></svg>
